svg/u1fa71.svg

<svg viewBox="0 0 128 128" xmlns="http://www.w3.org/2000/svg">
  <g>
    <path d="M64.94,79.63c-16.35-5.02-26.46-12.97-27.47-14.18c0.03,0.89,0.03,1.79-0.01,2.7 c-0.42,8.72-4.93,20.18-6.9,24.79c-0.5,1.17-0.12,2.52,0.93,3.24c0,0,6.84,5.85,13,12.73c5.01,5.59,8.98,11.18,10.71,13.71 c0.6,0.88,1.59,1.4,2.66,1.4h11.32c1.05,0,2.04-0.51,2.64-1.37c1.74-2.5,5.75-8.06,10.7-13.73c1.85-2.12,3.48-3.92,4.93-5.47 C86.15,99.51,82.7,85.08,64.94,79.63z" fill="#008DEB"/>
    <path d="M92.78,98.17c-0.59-2.34-4.07-17.84-21.13-27.77C33.69,48.31,39.21,20.62,39.21,20.62h-1.64 c-1.95,7.73-3.75,16.14-3.84,19.09c-0.29,8.88,4.23,18.07,3.74,28.45c-0.01,0.11-0.02,0.22-0.02,0.33 c9.14,10.16,29.34,11.86,37.91,19.78c9.75,8.99,10.3,17.11,10.3,17.11C89.31,101.16,90.69,99.74,92.78,98.17z" fill="#214485"/>
    <path d="M92.22,80.85c0,0-12.49-13.69-17.49-19.54c-5.38-6.29-7.9-15.18-9.01-20.62 c-0.72,0.1-1.46,0.16-2.22,0.16c-11.54,0-16.49-11.27-16.71-21.59c-0.15-6.77,0.15-11.6,0.37-14.05c0.07-0.85-0.78-1.46-1.56-1.12 c-0.94,0.4-2.12,0.94-3.17,1.52c-0.88,0.48-1.89,3.54-4.26,12.41c-2.9,10.74,1.2,21.99,4.48,27.76 C57.51,71.91,86.53,72.9,91.39,99.32c2.72-2.19,5.67-3.83,5.67-3.83c0.49-0.26,0.74-0.82,0.5-1.32 C96.41,91.75,94.54,87.6,92.22,80.85z" fill="#59C7BD"/>
    <path d="M93.42,39.7c-0.13-3.89-3.13-16.66-5.53-25.04c-1.74-6.3-2.59-8.64-3.35-9.05 c-1.05-0.58-2.23-1.12-3.17-1.52c-0.78-0.34-1.63,0.27-1.56,1.12c0.21,2.45,0.51,7.28,0.37,14.05c-0.17,7.81-3.05,16.17-9.45,19.76 l0,0.01c-1.69,0.95-3.61,1.58-5.78,1.76c0.51,7.95,3.29,16.01,9.95,22.9c8.19,8.48,14.65,15.78,18.35,20.16 c-1.65-4.93-3.33-10.79-3.57-15.7C89.18,57.77,93.71,48.59,93.42,39.7z" fill="#00796B"/>
  </g>
</svg>

<svg viewBox="0 0 128 128" xmlns="http://www.w3.org/2000/svg">
  <defs/>
  <path d="M64.94,79.63 C48.59,74.61 38.48,66.66 37.47,65.45 C37.5,66.34 37.5,67.24 37.46,68.15 C37.04,76.87 32.53,88.33 30.56,92.94 C30.06,94.11 30.44,95.46 31.49,96.18 C31.49,96.18 38.33,102.03 44.49,108.91 C49.5,114.5 53.47,120.09 55.2,122.62 C55.8,123.5 56.79,124.02 57.86,124.02 L69.18,124.02 C70.23,124.02 71.22,123.51 71.82,122.65 C73.56,120.15 77.57,114.59 82.52,108.92 C84.37,106.8 86,105 87.45,103.45 C86.15,99.51 82.7,85.08 64.94,79.63 Z" fill="#008DEB"/>
  <path d="M92.78,98.17 C92.19,95.83 88.71,80.33 71.65,70.4 C33.69,48.31 39.21,20.62 39.21,20.62 L37.57,20.62 C35.62,28.35 33.82,36.76 33.73,39.71 C33.44,48.59 37.96,57.78 37.47,68.16 C37.46,68.27 37.45,68.38 37.45,68.49 C46.59,78.65 66.79,80.35 75.36,88.27 C85.11,97.26 85.66,105.38 85.66,105.38 C89.31,101.16 90.69,99.74 92.78,98.17 Z" fill="#214485"/>
  <path d="M92.22,80.85 C92.22,80.85 79.73,67.16 74.73,61.31 C69.35,55.02 66.83,46.13 65.72,40.69 C65,40.79 64.26,40.85 63.5,40.85 C51.96,40.85 47.01,29.58 46.79,19.26 C46.64,12.49 46.94,7.66 47.16,5.21 C47.23,4.36 46.38,3.75 45.6,4.09 C44.66,4.49 43.48,5.03 42.43,5.61 C41.55,6.09 40.54,9.15 38.17,18.02 C35.27,28.76 39.37,40.01 42.65,45.78 C57.51,71.91 86.53,72.9 91.39,99.32 C94.11,97.13 97.06,95.49 97.06,95.49 C97.55,95.23 97.8,94.67 97.56,94.17 C96.41,91.75 94.54,87.6 92.22,80.85 Z" fill="#59C7BD"/>
  <path d="M93.42,39.7 C93.29,35.81 90.29,23.04 87.89,14.66 C86.15,8.36 85.3,6.02 84.54,5.61 C83.49,5.03 82.31,4.49 81.37,4.09 C80.59,3.75 79.74,4.36 79.81,5.21 C80.02,7.66 80.32,12.49 80.18,19.26 C80.01,27.07 77.13,35.43 70.73,39.02 L70.73,39.03 C69.04,39.98 67.12,40.61 64.95,40.79 C65.46,48.74 68.24,56.8 74.9,63.69 C83.09,72.17 89.55,79.47 93.25,83.85 C91.6,78.92 89.92,73.06 89.68,68.15 C89.18,57.77 93.71,48.59 93.42,39.7 Z" fill="#00796B"/>
</svg>
